X:7
T:Donald Angus Beaton's Strathspey
R:strathspey
C:Sandy MacInnis
D:Cape Breton Fiddle and Piano Music, The Beaton Family of Mabou
O:20th century Cape Breton
Z:Paul Stewart Cranford (P.S.C.), <http://www.cranfordpub.com>
L:1/8
M:C
Q:300
K:A
E|A2 A>c B>AB>c|A/A/A A<=g f>ef<a|e<cA>c B>AB<c|A>GF<E A2 (3AAE|
A2 A>c B>AB>c|A/A/A A<=g f>ef<a|e<cA>c B>AB<c|A>GF<E A2 (3AAd||
||c>e (3eec B>AA<d|c<ee>c e>fgc B>AB<c|A>GF<E A2 (3AAd|
c>e (3eec B>AA<d|c<ee>c e>fgc B>AB<c|A>GF<E A2 A|]
